ui_kit/lib/assets/icons/network_1.svg

<svg width="24" height="24" viewBox="0 0 24 24" fill="none" xmlns="http://www.w3.org/2000/svg">
<path d="M11.8749 7.00008C14.4237 7.03468 16.5539 7.90241 18.3201 9.64793C18.686 10.0096 18.7696 10.4442 18.5355 10.744C18.2966 11.0497 17.8222 11.0838 17.3941 10.8159H17.394C17.2717 10.7372 17.1576 10.6463 17.0534 10.5449C14.2396 7.86202 9.92392 7.77488 6.99203 10.3464C6.70817 10.5954 6.398 10.7654 6.00924 10.7389C5.73739 10.7204 5.51865 10.6037 5.39625 10.3506C5.27069 10.0901 5.34574 9.85289 5.50953 9.63804C5.58337 9.54577 5.66568 9.46058 5.75534 9.38356C7.51602 7.80395 9.59056 7.03936 11.8748 7L11.8749 7.00008Z" fill="#A4B0C1" fill-opacity="0.5"/>
<path d="M12.056 9.96363C13.8118 9.99906 15.2639 10.6639 16.5553 11.7274C16.7173 11.8608 16.8321 12.0417 16.9089 12.2391C17.0066 12.4896 17.0228 12.7417 16.8342 12.9589C16.6409 13.1809 16.3823 13.218 16.1094 13.1568C15.8162 13.0911 15.5905 12.9099 15.3709 12.7141C13.6201 11.1469 11.0235 11.0386 9.17305 12.4536C9.00712 12.5805 8.85507 12.7252 8.69779 12.863C8.45634 13.0742 8.18505 13.206 7.85505 13.1797C7.42536 13.1456 7.17594 12.7829 7.29386 12.3704C7.35562 12.1594 7.47532 11.9699 7.6392 11.8235C8.90352 10.6621 10.3723 9.98833 12.0561 9.96359L12.056 9.96363Z" fill="#A4B0C1" fill-opacity="0.5"/>
<path d="M12.3837 13.0515C13.2929 13.0679 14.1575 13.4486 14.7834 14.1082C15.0045 14.3392 15.1571 14.5997 15.0699 14.9415C14.9595 15.3772 14.4355 15.5814 14.0706 15.2434C12.9352 14.1913 11.3559 14.1835 10.1518 15.1832C9.8159 15.4621 9.6003 15.485 9.3318 15.2699C9.0633 15.0547 8.99818 14.6907 9.17686 14.3584C9.27321 14.1793 9.41411 14.0381 9.57035 13.9105C10.2599 13.3491 11.1492 13.0497 12.3837 13.0515L12.3837 13.0515Z" fill="#A4B0C1" fill-opacity="0.5"/>
<path d="M13.2144 16.9408C13.2142 17.234 13.0967 17.515 12.8882 17.7212C12.6798 17.9275 12.3975 18.042 12.1043 18.0392C11.4715 18.036 10.9824 17.5405 10.9928 16.9121C11.0035 16.2592 11.4986 15.7663 12.1329 15.7793C12.7443 15.7907 13.2196 16.3006 13.2144 16.9408Z" fill="#ED4C5A"/>
</svg>

<svg xmlns="http://www.w3.org/2000/svg" width="24" height="24" fill="none" viewBox="0 0 24 24"><path fill="#A4B0C1" fill-opacity=".5" d="M11.875 7c2.549.035 4.679.902 6.445 2.648.366.362.45.796.215 1.096-.238.306-.713.34-1.14.072h-.001a2.18 2.18 0 0 1-.34-.271c-2.814-2.683-7.13-2.77-10.062-.199-.284.25-.594.42-.983.393-.272-.019-.49-.135-.613-.388-.125-.26-.05-.498.114-.713.073-.092.156-.177.245-.254C7.516 7.804 9.591 7.039 11.875 7Z"/><path fill="#A4B0C1" fill-opacity=".5" d="M12.056 9.964c1.756.035 3.208.7 4.5 1.763.161.134.276.315.353.512.098.25.114.503-.075.72-.193.222-.452.259-.725.198-.293-.066-.519-.247-.738-.443-1.75-1.567-4.348-1.675-6.198-.26-.166.127-.318.271-.475.409-.242.211-.513.343-.843.317-.43-.034-.68-.397-.561-.81.062-.21.181-.4.345-.546 1.265-1.162 2.733-1.836 4.417-1.86Z"/><path fill="#A4B0C1" fill-opacity=".5" d="M12.384 13.052a3.394 3.394 0 0 1 2.4 1.056c.22.231.373.492.286.833-.11.436-.635.64-1 .302-1.135-1.052-2.714-1.06-3.918-.06-.336.28-.552.302-.82.087-.269-.215-.334-.58-.155-.912.096-.179.237-.32.393-.447.69-.562 1.58-.861 2.814-.86Z"/><path fill="#ED4C5A" d="M13.214 16.94a1.099 1.099 0 0 1-1.11 1.1 1.1 1.1 0 0 1-1.111-1.128c.01-.653.506-1.146 1.14-1.133.611.012 1.087.522 1.081 1.162Z"/></svg>
